O1585(MEC-0500-F5)
$1
(<MACHINEID>L11</MACHINEID>)
(0..54)
M350X1000.Z1000.Y1000.

M9
G50Z0.01
M6

G4U1.
M52
G18G97G40G113
M88M94M96M124
G0G99X#814+0.025
G0Z-0.010

G630

(SEQ 1)
(FACE OFF)
M3S1=#555
T200
G0X#814+0.025Z0.T2
G1X#814+.010F.002
G1G99X-.020F.0008
G0Z-0.025
G0X#814+0.025T0


(SEQ 3)
(FACE & TURN)
M3S1=#555
T200
G0X#814+0.025Z-.025T2
G0X-.060
/MB5(COOLANT ON)
G1G41X-.040Z-.010F.005
G1Z0.X-.020F.0006
G1X.1728,R.015
G1X.236(A15.)Z.118+#550,R.015
G1Z.5123
G1X.3157-.010F.0008
G1X.3157+.005A45.
G1G40X#814A60.F.0015
W0.025
G0X#814+0.025T0

(SEQ 4)
(BACK TURN)
M3S1=#555
T500
/MB8(HIGH PRESSURE ON)
/MB5(COOLANT OFF)
G50W-.144
G0X#814+0.025Z.500T5
G1X.335F.002
G1Z.828-.060F.001
G1Z.830A-45.
G1Z.828+.020
G1X#814
G50W.144
G0X#814+0.025T0
/MB8(HIGH PRESSURE OFF)

G1G98Z-.050F100.
G4U.5
G1Z.075F200.
G1Z.375F20.(SLOW BACK INTO GB)
G0G99Z.828+.080+.002(PART OFF POS)

(POSITION PART OFF)
(/MB1  ON)
M3S1=#817
T100
G0X#814+0.025Z0.828+0.08+0.002T1

G650

M3S1=#817M24S2=#817
!L05
G114.1H1D-2

!L10


(PART OFF)
G1G99X.325F.001
G1G99X#824F#822

G113

(CHECK TOOL)
M3S1=300M25
G4U1.5
M50

(/MB1  OFF )
G600

(BAR CHANGE)
M8
/M98P7000
M9

(RETURN TO ST.POS)
M5M25
M7
G4U1.
G0X#824Z0.01T0
M6

(COUNT)
M56

M2
M99

$2
M350X200.(1000.)Z200.(1000.)


#555(RPM)=3000+600

#550(T2 TAPER Z FUDGE)=-.0004(.0004)

#552(T37 X STEP FUDGE)=.0000

#521(BACK FACE/TURN)=1

M141Q1


G630
G99

IF[#521NE1.]GOTO21
(FACE/TURN)
G44G99
M23S2=4000
M88
M1
T3700Q3
G0X#814+.025Y0Z-.010T37
G1G98Z.335F50.
(MB3)
G1G99G42X.325Z.325F.002
G1X.31575F.0005
G1Z.138+.0044
G1X.3136+#552
G1Z.0588,R.010
G1X.196Z0.,R.010
G1X-.020
G1Z-.025F.002
G53Z0.T0
(MB3)
N21


(QUICK EJECT - NON MACRO)
()
M25
M33
M88
M72
G53Z.489+.5
M16
M10
G4U0.2
G53Z0.T0
M11
M23S2=3000
G4U1.0
(T3000)
G4U1.
T3100Q3
/MB4(ON)
M25
(M10)
G4U1.0
(M11)
M15
M25S2=6500
G4U2.0
M25
M16
T3000
M73
M31
/MB4(OFF)



G650

!L05
M16

M1
G0Z-.1(-0.25)
/MB4(ON)

M77
(PICK OFF LENGTH)
G98G1Z0.470F160.
G4U0.1
M15

!L10

G600
M25
/MB4(OFF)
M2
M99

$0
A2-LE-2-20-12-P-M
#814=0000003750
#815=0000000500
#816=0000001000
#817=0003000000
#822=0000000008
#824=-000000600
#818=0000010000
#819=0000001000
#918=0000007286
#821=0000003570
#921=0000009000
#919=0000000000
#922=0000000000
#990=0004140000
#991=0000055000
#992=0000067000
#893=0000000000
#25974=0004050000
#25975=0004100000
#25976=0000000000
#25977=0000000000
#25978=0000000000
#25979=0000000000
#25980=0000000000
%