X-0.5


O1673(7003712-REV.02)
$1
(<MACHINEID>L30</MACHINEID>)
M350X1000.Z1000.Y1000.

(CYCLE TIME X.XX)

M9
G50Z0.01 (Where the bar/tool is
M52
M6
G4U1.
G18G97G40G113
M86M94M96M88
G0G99X#814+0.025
G0Z-0.010

G630

(FACE OFF)
M3S1=#555
T200
G0X#814+0.025Z0.T2
G1G99X-.020F.0008
G0Z-0.025
G0X#814+0.025T0

IF[#501NE1.]GOTO01
(SPOT DRILL)
M3S1=4000
G0Z-0.025
M1
T1100
G0Z-0.025T11
G1G9Z[.085/5.5]F.0007
G0Z-0.025T0
N01

IF[#502NE1.]GOTO02
(G79 PECK DRILL)
M3S1=3300
G0Z-0.025
M1
T1200
G0Z-0.025T12
G1Z-.005F.005
G79Z.200+[.137/5.5]R0.I.005+[.140/5.5]K.015A.005Q0.J250.F.0008,F150.
G80
G0Z-0.025T0
N02

IF[#503NE1.]GOTO03
(G79 PECK DRILL)
M3S1=3000
G0Z-0.025
M1
T1300
G0Z-0.025T13
G1Z-.005F.005
G79Z.790R.200I.025K.010A.005Q0.J275.F.0008,F150.
G80
G1Z-.005F.002
G79Z.850+.025R.790I.012K.008A.005Q0.J275.F.0008,F150.
G80
G0Z-0.025T0
N03

IF[#504NE1.]GOTO04
(BORE)
M3S1=4000
G0Z-0.025
M1
T1400
G50U.0946(MEASURE)
G0Z-0.025T14
G0X.147
G1Z.200F.0004
G1U-.002F.002
G1Z-.010
G0X.153+.040
G1X.153+.025Z-.005F.002
(G1X[.306+.050]/2Z-.005F.002   make sure these agree)
G1X.153Z0.,R.0105F.0002       (r is in between)
G1Z.200
G1X.137,R.008
G1U-.003W.015
G1Z.195F.002
G0Z-0.025
G50U-.0946(MATCH)
G0U0Z-0.025T0
N04

(FACE & TURN)
M3S1=#555
T200
B5

G0X#814+0.025Z-.025T2
G0X-.040
G1X-.020Z0.F.0005
G1X.163,R.009
G1Z.150-.005
G1X.175+.002
G1Z.230
G1Z.245X.156
G1Z.335-.005
G1X#814F.002
W0.025
G0X#814+0.025T0
B5

(GROOVE)
M3S1=#555
T300
G50W-.012
G0X#814+0.025Z.150+.0015T3
G1X.175F.0005
G1X.175-.003Z.150F.0002
G1G9X.163F.0005
G1X.175+.0008F.002
G50W-.0197
G1Z.220-.0015F.0002
G1X.175-.003Z.220
G1G9X.156F.0005
G1X#814+0.025F.002
G50W.0197
G50W.012
G0X#814+0.025T0

IF[#505NE1.]GOTO05
(MILL SLOTS)

(Y AXIS MILL)
M5G98
M80S3=6000
M1
T700
M18C0.
G50W-.197
G0X#814+0.025Z.075Y[.165+.040]T7
G19

#155(SINGLE SLOT)=0

#151(CLOCKING)=0.

IF[#155EQ1.]THEN#151=270.

WHILE[#151LE270.]DO1

G0C#151

G1X.150F100.
G1Y-[.165+.040]F1.5
G1X.140F100.
G1Y[.165+.040]F1.5
G0X#814
Z.075Y[.165+.040]
#151=#151+90.
END1

G0Y0.

#152=0

IF[#155EQ1.]THEN#152=270.

(COMP, 0 T-DATA)

WHILE[#152LE270.]DO2

G0C#152

G1X.170F100.
G1X.110F5.
G1G41Y-.030Z.0803,R.010F1.5
G1Y-.040
G3Y-.0506Z.075R.0053
G3Y-.040Z.0697R.0053
G1Y.040
G3Y.0506Z.075R.0053
G3Y.040Z.0803R.0053
G1Y-.040
G1G40Y0.Z.075
G1X#814F100.

#152=#152+90.
END2

G0X#814+0.025T0
G18
G50W.197
M20M82G99
N05

IF[#509NE1.]GOTO09
(Y AXIS MILL)
M5G98
M80S3=6000
M1
T800
M18C0.
G50W-.3937
G0X#814+0.025Z.0666Y-.2068T8
G19

#191(CLOCKING)=0.

WHILE[#191LE270.]DO6

G00G98X#814+.025Y-0.2068Z0.0666
G0C#191

G00X#814Y-0.054Z0.0666
G01G40X0.1511F10.
G01X0.1504Y-0.0534Z0.0663F5.
G01X0.1487Y-0.0514Z0.0654
G01X0.1472Y-0.0491Z0.0646
G01X0.1457Y-0.0467Z0.0639
G01X0.1445Y-0.044Z0.0633
G01X0.1435Y-0.0413Z0.0627
G01X0.1427Y-0.0383Z0.0623
G01X0.1421Y-0.0353Z0.062
G01X0.1417Y-0.0322Z0.0618
G01X0.1415Y-0.029Z0.0617
G01X0.1415Y-0.0259Z0.0617
G01X0.1423Y-0.0129Z0.062
G01X0.1426Y0.Z0.0621
G01X0.1422Y0.0121Z0.0621
G01X0.1411Y0.0237Z0.0621
G01X0.1393Y0.0354Z0.0621
G01X0.1366Y0.0475Z0.0621
G01X0.1352Y0.051Z0.0624
G01X0.1341Y0.0537Z0.0627
G01X0.1328Y0.0562Z0.0632
G01X0.1316Y0.0587Z0.0637
G01X0.1303Y0.061Z0.0644
G01X0.1291Y0.0631Z0.0651
G01X0.1278Y0.0651Z0.0659
G01X0.1266Y0.0669Z0.0668
G01X0.1255Y0.0685Z0.0677
G01X0.1245Y0.0698Z0.0687
G01X0.1236Y0.0709Z0.0696
G01X0.1225Y0.072Z0.0711
G01X0.1216Y0.0726Z0.0724
G01X0.1211Y0.0727Z0.0733
G01X0.1206Y0.0725Z0.0742
G01X0.1202Y0.0723Z0.0747
G01X0.12Y0.0721Z0.075
G01X0.1201Y0.0722Z0.0752
G01X0.1204Y0.0724Z0.0757
G01X0.1209Y0.0727Z0.0764
G01X0.1213Y0.0727Z0.077
G01X0.122Y0.0724Z0.0783
G01X0.123Y0.0715Z0.0797
G01X0.1236Y0.0708Z0.0804
G01X0.1245Y0.0698Z0.0814
G01X0.1255Y0.0684Z0.0823
G01X0.1267Y0.0669Z0.0832
G01X0.1278Y0.0651Z0.0841
G01X0.1291Y0.0631Z0.0849
G01X0.1303Y0.061Z0.0856
G01X0.1316Y0.0586Z0.0863
G01X0.1329Y0.0562Z0.0868
G01X0.1341Y0.0536Z0.0873
G01X0.1352Y0.051Z0.0876
G01X0.1368Y0.0468Z0.088
G01X0.1393Y0.0352Z0.0879
G01X0.1411Y0.0237Z0.0879
G01X0.1422Y0.0116Z0.0879
G01X0.1426Y0.Z0.0879
G01X0.1422Y-0.0121Z0.0879
G01X0.1411Y-0.0237Z0.0879
G01X0.1393Y-0.0354Z0.0879
G01X0.1368Y-0.0468Z0.088
G01X0.1358Y-0.0496Z0.0878
G01X0.1347Y-0.0523Z0.0875
G01X0.1335Y-0.055Z0.0871
G01X0.1322Y-0.0575Z0.0865
G01X0.1309Y-0.0599Z0.086
G01X0.1297Y-0.0621Z0.0853
G01X0.1284Y-0.0641Z0.0845
G01X0.1272Y-0.066Z0.0837
G01X0.1261Y-0.0677Z0.0828
G01X0.125Y-0.0692Z0.0818
G01X0.124Y-0.0704Z0.0809
G01X0.1228Y-0.0717Z0.0794
G01X0.1219Y-0.0725Z0.078
G01X0.1212Y-0.0727Z0.0768
G01X0.1206Y-0.0726Z0.076
G01X0.1202Y-0.0723Z0.0754
G01X0.12Y-0.0721Z0.0751
G01X0.1201Y-0.0722Z0.0748
G01X0.1204Y-0.0724Z0.0744
G01X0.1208Y-0.0726Z0.0738
G01X0.1214Y-0.0727Z0.0728
G01X0.1222Y-0.0722Z0.0715
G01X0.1232Y-0.0713Z0.0701
G01X0.124Y-0.0703Z0.0691
G01X0.125Y-0.0691Z0.0682
G01X0.1261Y-0.0677Z0.0672
G01X0.1273Y-0.066Z0.0663
G01X0.1285Y-0.0641Z0.0655
G01X0.1297Y-0.0621Z0.0647
G01X0.131Y-0.0598Z0.064
G01X0.1323Y-0.0574Z0.0634
G01X0.1335Y-0.0549Z0.0629
G01X0.1346Y-0.0523Z0.0625
G01X0.1357Y-0.0496Z0.0623
G01X0.1368Y-0.0468Z0.062
G01X0.1393Y-0.0352Z0.0621
G01X0.1411Y-0.0237Z0.0621
G01X0.1422Y-0.0116Z0.0621
G01X0.1425Y-0.0032Z0.0621
G01X0.1426Y0.0052Z0.062
G01X0.1423Y0.0221Z0.0616
G01X0.1424Y0.0253Z0.0615
G01X0.1427Y0.0284Z0.0616
G01X0.1432Y0.0315Z0.0618
G01X0.1439Y0.0345Z0.0621
G01X0.1448Y0.0375Z0.0626
G01X0.1459Y0.0402Z0.0631
G01X0.1472Y0.0428Z0.0637
G01X0.1487Y0.0452Z0.0644
G01X0.1504Y0.0474Z0.0652
G01X0.1522Y0.0493Z0.0661
G01X0.1528Y0.05Z0.0664
G00X#814+.025
G0Y0.1907

#191=#191+90.
END6

G0X#814+0.025T0
G18
G50W.3937
M20M82G99
N09

IF[#506NE1.]GOTO06
(CHASE BORE)
M3S1=2000
G0Z-0.025
M1
T1400
G50U.0946(MEASURE)
G0Z-0.025T14
G0X.147
G1Z.200F.0004
G1U-.002F.002
G1Z-.010
G0X.153+.040
G1X.153+.025Z-.005F.002
G1X.153Z0.,R.010F.0004
G1Z.200
G1U-.005
G0Z-0.025
G50U-.0946(MATCH)
G0U0Z-0.025T0
N06

(FACE & TURN)
M3S1=#555
T200
B5

G0X#814+0.025Z-.025T2
G0X-.040
G1X-.020Z0.F.0005
G1X.163,R.009
G1Z.150-.005
G1X.175+.002
G1Z.230
G1Z.245X.156
G1Z.335-.005
G1X.185,R.010
G1Z.5326+.013
G1X.156W.035
W.025
G1X#814F.002
W0.025
G0X#814+0.025T0
B5

IF[#507NE1.]GOTO07
(CHASE SLOTS)
M5G98
M80S3=6000
M1
T700
M18C0.
G50W-.197
G0X#814+0.025Z.075Y[.165+.040]T7
G19

G0Y0.

#172=0

IF[#155EQ1.]THEN#172=270.

(COMP, 0 T-DATA)

WHILE[#172LE270.]DO3

G0C#172

G1X.170F100.
G1X.110F5.
G1G41Y-.030Z.0803,R.010F3.0
G1Y-.040
G3Y-.0506Z.075R.0053
G3Y-.040Z.0697R.0053
G1Y.040
G3Y.0506Z.075R.0053
G3Y.040Z.0803R.0053
G1Y-.040
G1G40Y0.Z.075
G1X#814F100.

#172=#172+90.
END3

G0X#814+0.025T0
G18
G50W.197
M20M82G99

N07

(GROOVE)
M3S1=#555
T300
G50W-.012
G0X#814+0.025Z.335+.010T3
G1X.1855F.0005
G1G9X.156Z.335F.0002
G1X#814F.002
G50W-.0197
G0Z.5326+.018
G1G9X.156F.0005
G1X#814F.002
G0Z.5326-.010
G1X.1855F.0005
G1G9X.156+.0006Z.5326F.0002
G1W.020
G1X#814+0.025F.002
G50W.0197
G50W.012
G0X#814+0.025T0

IF[#508NE1.]GOTO08
(G92 SCREWCUT)
M3S1=500
M1
T400
B6
G50W-.025
G0X#814+0.025Z.335-.020T4
G1X.225F.005
/M1
G92X.184Z.533+.015R0.F[1/40]
X.180
X.177
X.174
X.171
X.169
X.167
X.165
X.163
X.161
X.160
X.159
X.158
X.157
X.156
X.1555
X.1555
G1X#814F.005
G50W.025
G0X#814+0.025T0
N08
B6

(GROOVE)
M3S1=#555
T300
G50W-.012
G0X#814+0.025Z.335+.010T3
G1X.185F.0005
G1G9X.156Z.335F.0002
G1X#814F.002
G50W-.0197
G0Z.5326+.018
G1G9X.156F.0005
G1X#814F.002
G0Z.5326-.010
G1X.185F.0005
G1G9X.156Z.5326F.0002
G1X#814+0.025F.002
G50W.0197
G50W.012
G0X#814+0.025T0

(TURN)
M3S1=#555
T200
B5

G0X#814+0.025Z.335-.005T2
G1X.185-.0005F.0008
G1Z.5326+.013
G1X.156W.035F.0005
G1X.156Z.5326+.030
G1Z.850+.070+.002
G1X#814F.002
W0.025
G0X#814+0.025T0
B5

(GROOVE)
M3S1=#555
T300
G50W-.012
G50W-.0197
G0X#814+0.025Z.850-.0015T3
G1X.156F.0005
G1X.156-.007Z.850+.002F.0002
G1G9U-.001F.0005
G1X#814+0.025F.002
G50W.0197
G50W.012
G0X#814+0.025T0

(POSITION PART OFF)
M3S1=#817
T100
G0X#814+0.025Z[0.85+0.08+.002]T1

G650

M3S1=#817M24S2=#817
!L05
G114.1H1D-2

!L10

(PART OFF)

G1G99X0.05F#822
X#824F#822/2

G113

(CHECK TOOL)
M3S1=300M25
G4U1.5
M50
G600

(BAR CHANGE)
M8
M8
/M53
/#3000=1(BARCHANGE CALL)
M9

(RETURN TO ST.POS)
M5M25
M7
G4U1.
G0X#824Z0.01T0

M6

(COUNT)
M56

M2
M99

$2
M350X1000.Z1000.

#555(RPM)=3500

#501(SPOT)=1
#502(DRILL, ROUGH MAJOR)=1
#503(DRILL, THROUGH)=1
#504(BORE)=1
#505(MILL SLOTS)=1
#509(CHAMFER SLOTS)=1
#506(CHASE BORE)=1
#507(CHASE SLOTS)=1
#508(10-40 THREAD)=1

#521(BACK FACE)=1
#522(BACK SPOT)=1
#523(BACK REAM)=1

(LOGIC)
IF[#501NE1.]THEN#502=0
IF[#502NE1.]THEN#503=0
IF[#503NE1.]THEN#504=0
IF[#502NE1.]THEN#505=0
IF[#505NE1.]THEN#506=0
IF[#505NE1.]THEN#509=0
IF[#506NE1.]THEN#507=0

IF[#521NE1.]THEN#522=0
IF[#522NE1.]THEN#523=0

T3000
G630

B4
IF[#521NE1.]GOTO21
(FACE/TURN)
G44G99
M23S2=#555
M88
M1
T3100Q3
G0X#814+.025Z-.010T31
G1G98Z0.X.150F50.
G1G99X-.020F.0005
G1Z-.005F.005
G53Z0.T0
N21

IF[#522NE1.]GOTO22
(SPOT DRILL)
G44G99
M23S2=4000
M88
M1
T3200Q3
G0Z-0.025T32
G1G9Z[.139/2]-.005F.0005
G53Z0.T0
N22

IF[#523NE1.]GOTO23
(REAM)
G44G99
M23S2=1200
M88
M1
T3400Q3
G0Z-0.025T34
G1G9Z.650+.080F.0008
G1Z-0.025F.0013
G53Z0.T0
N23

(EJECT)
M23S2=200
G4U0.5
M25
(B4)
M34
T3000
B4

G650

!L05
M16

M1
G0G98Z-0.250
M77
(PICK OFF LENGTH)
G98G1Z0.840F150.

G4U0.1
M15
!L10

G600

M2
M99


$0
A2-L-1-12-7-P-M
#814=0000002500
#815=0000000500
#816=0000001000
#817=0003500000
#822=0000000008
#824=-000000600
#818=0000013000
#819=0000001000
#820=0000000000
#821=0000000100
#990=0003004000
#991=0003101000
#992=0003201000
#893=0000000000
#25119=0000000000
#26029=0000000000
#25115=0000009950




%